X: 1
T: The High Reel
O: Trad
Z: 2005 John Chambers <jc:trillian.mit.edu>
M: C|
L: 1/8
K: Amix=g
|: "A"a2fa ecA2 | c{B}AeA fAeA | a2fa ecA2 | "G"Bcdc BGGB |  "A"a2fa ecA2 |
| cdef "(G)"g2fg | afge fdec | "G"Bcdc BGGB :: "A"c{B}A eA fAeA | c{B}A af ecA2 |
| c{B}A eA fAeA | "G"Bcdc BGGB |  "A"c{B}A eA fAeA |cdef "(G)"g2fg | afge fdec | "G"Bcdc BGG2 :|
